modules/hawcons-filled/icons/icon-32-award.svg

<?xml version="1.0" encoding="UTF-8" standalone="no"?>
<svg width="32px" height="32px" viewBox="0 0 32 32" version="1.1" xmlns="http://www.w3.org/2000/svg" xmlns:xlink="http://www.w3.org/1999/xlink" xmlns:sketch="http://www.bohemiancoding.com/sketch/ns">
    <!-- Generator: Sketch 3.0.3 (7891) - http://www.bohemiancoding.com/sketch -->
    <title>icon 32 award</title>
    <desc>Created with Sketch.</desc>
    <defs></defs>
    <g id="Page-1" stroke="none" stroke-width="1" fill="none" fill-rule="evenodd" sketch:type="MSPage">
        <g id="icon-32-award" sketch:type="MSArtboardGroup" fill="#929292">
            <path d="M10,18.0007324 L10,31 L16,25 L22,31 L22,18.0007324 C20.3286789,19.2561104 18.2512118,20 16,20 C13.7487882,20 11.6713211,19.2561104 10,18.0007324 L10,18.0007324 L10,18.0007324 Z M16,19 C20.9705627,19 25,14.9705627 25,10 C25,5.02943725 20.9705627,1 16,1 C11.0294373,1 7,5.02943725 7,10 C7,14.9705627 11.0294373,19 16,19 L16,19 Z M16,12.6923077 L12.5,15 L14,11 L11,9 L14.5,9 L16,5 L17.5,9 L21,9 L18,11 L19.5,15 L16,12.6923077 L16,12.6923077 Z" id="award" sketch:type="MSShapeGroup"></path>
        </g>
    </g>
</svg>

<svg width="32" height="32" xmlns="http://www.w3.org/2000/svg"><path d="M10 18v13l6-6 6 6V18a9.956 9.956 0 0 1-6 2 9.956 9.956 0 0 1-6-2zm6 1a9 9 0 1 0 0-18 9 9 0 0 0 0 18zm0-6.308L12.5 15l1.5-4-3-2h3.5L16 5l1.5 4H21l-3 2 1.5 4-3.5-2.308z" fill="#929292" fill-rule="evenodd"/></svg>
